!!!OTL: 1958. Jesu Leidensgeschichte.
!!!ARE: Europa, Mitteleuropa, Deutschland
!!!SCT: E1958
!!!TXL: @@DE
!!!YEM: Copyright 1995, estate of Helmut Schaffrath.
**kern	**text
*ICvox	*
*M4/4	*
*met(c)	*
*k[b-]	*
*F:	*
!LO:TX:a:t=Langsam.	!
!LO:TX:a:t=Cölner Geſangb. (Quentel) 1619. Cöln (Brachel) 1619. 1634. Mainʒ-Speier 1631. Corner 1631.	!
{4cc	Da
=1	=1
4cc	Je-
4dd	-ſus
4cc	in
4b-	den
=2	=2
4b-/	Gar-
4g	-ten
2f	gieng
=3	=3
4r}	.
{4f	und
4a	ihm
4b-	ſein
=4	=4
4cc	Lei-
4g	-den
4a	a-
4b-	-ne-
=5	=5
2cc	-fieng
4r}	.
{4a	da
=6	=6
4b-	trau-
4cc	-ret
4dd	al-
4cc	-les,
=7	=7
4b-/	was
4a	da
2b-/	was,
=8	=8
4r}	.
{4a	da
4g	trau-
4a	-ret
=9	=9
4b-	Laub
4cc	und
4cc	grü-
4bn	-nes
=10	=10
2.cc}	Gras.
==	==
!!!AGN: geistlich, Fest - Lied, Biblischer Stoff, Passion
!! Schluss modulierend
!!!ONB: ESAC (Essen Associative Code) Database: ERK3
!!!AMT: simple quadruple
!!!AIN: vox
!!!EED: Helmut Schaffrath
!!!EEV: 1.0
!!!GTL: Geistliche Lieder. 1. Christliche Festlieder: b) Osterkreis (Passionszeit, Ostern, Himmelfahrt, Pfingsten).
!!!URL-scan: https://rosdok.uni-rostock.de/mcrviewer/recordIdentifier/rosdok_ppn745177999/iview2/phys_0669.iview2?x=188.96815741118007&y=784.3847105340101&scale=0.7014306698522891&rotation=0&layout=singlePageLayout
!!!ENC: Anna Maria Matuszewska
!!!EEV: 2025/10/01
*-	*-
